X:64
T: Die Rheinbraut
N: Q0047A
O: Mitteleuropa, Deutschland (DDR) , Sachsen, Salzwedel, Lagendorf
N: Eingeklammerte Pausen mit kodiert.
R: Ballade, Braut - Werbung, Todesahnung, Tod
M: 6/8
L: 1/16
K: G
D2 | G4G2G2F2G2 | B2A2z6
D2 | G4G2G2F2G2 | B2A2z6
G2 | d4A2c2B2A2 | G4BAA4
A2 | G4G2c2B2A2 | G2B2A2G4

@@@ Tune index: 800
